src/images/svg/symbols/markets-stocks-and-indices/american-stocks/stocks-apple.svg

<svg width="32" height="32" viewBox="0 0 32 32" fill="none" xmlns="http://www.w3.org/2000/svg">
<path d="M0 16C0 7.16344 7.16344 0 16 0C24.8366 0 32 7.16344 32 16C32 24.8366 24.8366 32 16 32C7.16344 32 0 24.8366 0 16Z" fill="#F2F3F4"/>
<path d="M23.6647 20.8031C23.3775 21.4667 23.0374 22.0776 22.6435 22.6392C22.1065 23.4049 21.6668 23.9349 21.3279 24.2292C20.8026 24.7122 20.2398 24.9597 19.6372 24.9737C19.2045 24.9737 18.6827 24.8506 18.0754 24.6008C17.466 24.3523 16.9061 24.2291 16.394 24.2291C15.857 24.2291 15.2811 24.3522 14.6651 24.6008C14.0481 24.8505 13.5511 24.9807 13.171 24.9936C12.5931 25.0182 12.017 24.7638 11.4421 24.2291C11.0751 23.909 10.616 23.3603 10.0661 22.5829C9.4761 21.7528 8.99105 20.7902 8.611 19.6927C8.20405 18.5073 8 17.3594 8 16.2481C8 14.9751 8.27506 13.8772 8.82603 12.9571C9.25907 12.218 9.83512 11.6351 10.556 11.2071C11.277 10.7791 12.056 10.561 12.8949 10.5471C13.354 10.5471 13.956 10.6891 14.704 10.9681C15.45 11.2481 15.929 11.3902 16.1389 11.3902C16.2959 11.3902 16.828 11.2241 17.7301 10.8931C18.5831 10.5862 19.303 10.4591 19.8927 10.5091C21.4908 10.6381 22.6915 11.2681 23.49 12.4031C22.0607 13.2691 21.3537 14.4821 21.3678 16.0381C21.3807 17.2502 21.8203 18.2588 22.6845 19.0596C23.0761 19.4313 23.5134 19.7185 24 19.9225C23.8945 20.2285 23.7831 20.5216 23.6647 20.8031H23.6647ZM19.9995 6.38002C19.9995 7.33 19.6524 8.21699 18.9606 9.03798C18.1258 10.014 17.116 10.5779 16.021 10.489C16.0064 10.3695 15.999 10.2493 15.999 10.129C15.999 9.21698 16.396 8.24099 17.101 7.44301C17.453 7.03899 17.9007 6.70301 18.4436 6.435C18.9853 6.17099 19.4976 6.02497 19.9795 6C19.9936 6.12699 19.9995 6.25399 19.9995 6.37998L19.9995 6.38002Z" fill="black"/>
</svg>

<svg width="32" height="32" fill="none" xmlns="http://www.w3.org/2000/svg"><path d="M0 16C0 7.163 7.163 0 16 0s16 7.163 16 16-7.163 16-16 16S0 24.837 0 16Z" fill="#F2F3F4"/><path d="M23.665 20.803a10.327 10.327 0 0 1-1.021 1.836c-.537.766-.977 1.296-1.316 1.59-.525.483-1.088.73-1.69.745-.434 0-.955-.123-1.563-.373-.609-.249-1.169-.372-1.681-.372-.537 0-1.113.123-1.729.372-.617.25-1.114.38-1.494.393-.578.024-1.154-.23-1.729-.765-.367-.32-.826-.869-1.376-1.646-.59-.83-1.075-1.793-1.455-2.89C8.204 18.507 8 17.359 8 16.248c0-1.273.275-2.37.826-3.29a4.846 4.846 0 0 1 1.73-1.75 4.653 4.653 0 0 1 2.339-.66c.459 0 1.061.141 1.809.42.746.28 1.225.422 1.435.422.157 0 .689-.166 1.591-.497.853-.307 1.573-.434 2.163-.384 1.598.13 2.799.76 3.597 1.894-1.43.866-2.136 2.08-2.122 3.635.013 1.212.452 2.22 1.317 3.022.391.371.828.659 1.315.863-.105.306-.217.599-.335.88ZM20 6.38c0 .95-.348 1.837-1.04 2.658-.834.976-1.844 1.54-2.939 1.451a2.968 2.968 0 0 1-.022-.36c0-.912.397-1.888 1.102-2.686.352-.404.8-.74 1.343-1.008.541-.264 1.054-.41 1.536-.435.014.127.02.254.02.38Z" fill="#000"/></svg>
